src/images/nextjs-icon.svg

<svg width="33" height="33" viewBox="0 0 33 33" fill="none" xmlns="http://www.w3.org/2000/svg">
<g clip-path="url(#clip0_116_9)">
<path d="M33 16.5C33 7.3873 25.6127 0 16.5 0C7.3873 0 0 7.3873 0 16.5C0 25.6127 7.3873 33 16.5 33C25.6127 33 33 25.6127 33 16.5Z" fill="white"/>
<path d="M15.4194 0.00888042C15.3484 0.0153311 15.1226 0.0379084 14.9194 0.0540351C10.2323 0.476554 5.84194 3.00521 3.06129 6.89174C1.5129 9.05271 0.522581 11.504 0.148387 14.1004C0.016129 15.0067 0 15.2744 0 16.5032C0 17.7321 0.016129 17.9998 0.148387 18.9061C1.04516 25.102 5.45484 30.3077 11.4355 32.2364C12.5065 32.5815 13.6355 32.817 14.9194 32.9589C15.4194 33.0137 17.5806 33.0137 18.0806 32.9589C20.2968 32.7138 22.1742 32.1654 24.0258 31.2204C24.3097 31.0753 24.3645 31.0366 24.3258 31.0043C24.3 30.985 23.0903 29.3626 21.6387 27.4016L19 23.8376L15.6935 18.9448C13.8742 16.2549 12.3774 14.0552 12.3645 14.0552C12.3516 14.052 12.3387 16.2259 12.3323 18.8803C12.3226 23.528 12.3194 23.7151 12.2613 23.8247C12.1774 23.9828 12.1129 24.0473 11.9774 24.1182C11.8742 24.1698 11.7839 24.1795 11.2968 24.1795H10.7387L10.5903 24.086C10.4935 24.0247 10.4226 23.9441 10.3742 23.8505L10.3065 23.7054L10.3129 17.2386L10.3226 10.7686L10.4226 10.6428C10.4742 10.5751 10.5839 10.488 10.6613 10.4461C10.7935 10.3815 10.8452 10.3751 11.4032 10.3751C12.0613 10.3751 12.171 10.4009 12.3419 10.588C12.3903 10.6396 14.1806 13.336 16.3226 16.5839C18.4645 19.8318 21.3935 24.2666 22.8323 26.4437L25.4452 30.4012L25.5774 30.3141C26.7484 29.5529 27.9871 28.4692 28.9677 27.3403C31.0548 24.9439 32.4 22.0218 32.8516 18.9061C32.9839 17.9998 33 17.7321 33 16.5032C33 15.2744 32.9839 15.0067 32.8516 14.1004C31.9548 7.90449 27.5452 2.69881 21.5645 0.770059C20.5097 0.428174 19.3871 0.192724 18.129 0.0508097C17.8194 0.0185564 15.6871 -0.0169222 15.4194 0.00888042ZM22.1742 9.98806C22.329 10.0655 22.4548 10.2138 22.5 10.3686C22.5258 10.4525 22.5323 12.2458 22.5258 16.2871L22.5161 22.0863L21.4935 20.5188L20.4677 18.9513V14.7357C20.4677 12.0103 20.4806 10.4783 20.5 10.4041C20.5516 10.2235 20.6645 10.0816 20.8194 9.99774C20.9516 9.93 21 9.92355 21.5065 9.92355C21.9839 9.92355 22.0677 9.93 22.1742 9.98806Z" fill="#902BA9"/>
</g>
<defs>
<clipPath id="clip0_116_9">
<rect width="33" height="33" fill="white"/>
</clipPath>
</defs>
</svg>

<svg width="33" height="33" fill="none" xmlns="http://www.w3.org/2000/svg"><g clip-path="url(#a)"><path d="M33 16.5C33 7.387 25.613 0 16.5 0S0 7.387 0 16.5 7.387 33 16.5 33 33 25.613 33 16.5z" fill="#fff"/><path d="M15.42.009c-.072.006-.297.029-.5.045C10.231.477 5.841 3.005 3.06 6.892A16.331 16.331 0 0 0 .148 14.1C.016 15.007 0 15.274 0 16.503c0 1.23.016 1.497.148 2.403.897 6.196 5.307 11.402 11.287 13.33 1.072.346 2.2.581 3.484.723.5.055 2.662.055 3.162 0 2.216-.245 4.093-.794 5.945-1.739.284-.145.338-.183.3-.216-.026-.019-1.236-1.641-2.687-3.602L19 23.838l-3.306-4.893c-1.82-2.69-3.317-4.89-3.33-4.89-.012-.003-.025 2.17-.032 4.825-.01 4.648-.013 4.835-.07 4.945a.586.586 0 0 1-.285.293c-.103.052-.193.062-.68.062h-.558l-.149-.094a.603.603 0 0 1-.216-.235l-.068-.146.007-6.466.01-6.47.1-.126a.885.885 0 0 1 .238-.197c.133-.064.184-.07.742-.07.658 0 .768.025.939.212.048.052 1.839 2.748 3.98 5.996 2.143 3.248 5.072 7.683 6.51 9.86l2.613 3.957.132-.087c1.171-.761 2.41-1.845 3.39-2.974a16.423 16.423 0 0 0 3.885-8.434c.132-.906.148-1.174.148-2.403s-.016-1.496-.148-2.403C31.955 7.904 27.545 2.7 21.565.77a17.324 17.324 0 0 0-3.436-.72c-.31-.031-2.442-.067-2.71-.041zm6.754 9.98c.155.076.28.225.326.38.026.084.032 1.877.026 5.918l-.01 5.8-1.022-1.568-1.026-1.568v-4.215c0-2.726.013-4.258.032-4.332a.658.658 0 0 1 .32-.406c.132-.068.18-.074.686-.074.478 0 .562.006.668.064z" fill="#902BA9"/></g><defs><clipPath id="a"><path fill="#fff" d="M0 0h33v33H0z"/></clipPath></defs></svg>
